logos/chan-zuckerberg-biohub.svg

<?xml version="1.0" encoding="UTF-8"?>
<!DOCTYPE svg PUBLIC "-//W3C//DTD SVG 1.1//EN" "http://www.w3.org/Graphics/SVG/1.1/DTD/svg11.dtd">
<svg xmlns="http://www.w3.org/2000/svg" version="1.1" width="81px" height="81px" style="shape-rendering:geometricPrecision; text-rendering:geometricPrecision; image-rendering:optimizeQuality; fill-rule:evenodd; clip-rule:evenodd" xmlns:xlink="http://www.w3.org/1999/xlink">
<g><path style="opacity:1" fill="#fafbfe" d="M -0.5,-0.5 C 26.5,-0.5 53.5,-0.5 80.5,-0.5C 80.5,26.5 80.5,53.5 80.5,80.5C 53.5,80.5 26.5,80.5 -0.5,80.5C -0.5,53.5 -0.5,26.5 -0.5,-0.5 Z"/></g>
<g><path style="opacity:1" fill="#386fe2" d="M 10.5,4.5 C 13.1873,4.33591 15.854,4.50258 18.5,5C 21.6231,7.49441 24.6231,9.99441 27.5,12.5C 29.5977,10.5112 31.5977,8.34458 33.5,6C 40.8994,2.58638 46.2328,4.58638 49.5,12C 53.2256,12.9606 55.3922,11.4606 56,7.5C 61,3.5 66,3.5 71,7.5C 73,11.5 73,15.5 71,19.5C 70.0975,20.7014 68.9308,21.5348 67.5,22C 54.0231,22.8112 47.5231,29.9779 48,43.5C 47.2155,45.286 46.0488,46.786 44.5,48C 40.1667,49 35.8333,50 31.5,51C 30.8333,51.6667 30.1667,52.3333 29.5,53C 38.5311,59.7575 46.3644,58.5909 53,49.5C 54.1447,44.9174 54.8113,40.2508 55,35.5C 60.505,29.0119 66.1717,29.0119 72,35.5C 74.0024,41.6849 72.1691,46.1849 66.5,49C 57.5559,49.4547 51.5559,53.788 48.5,62C 48.7666,65.1642 50.4333,66.1642 53.5,65C 56.1527,58.6878 60.8194,56.3545 67.5,58C 72.1549,60.8966 73.6549,65.0633 72,70.5C 65.2515,78.825 59.0848,78.325 53.5,69C 51.7412,68.2025 50.0745,68.3691 48.5,69.5C 42.0053,78.9753 35.672,78.8086 29.5,69C 27.8333,68.3333 26.1667,68.3333 24.5,69C 19.7108,77.7605 13.8775,78.5939 7,71.5C 4.13181,65.5402 5.63181,61.0402 11.5,58C 16.6868,57.7161 21.3535,56.0494 25.5,53C 24.4495,51.6152 23.1161,50.6152 21.5,50C 10.5838,51.7385 5.41718,47.2385 6,36.5C 9.7478,31.2752 14.9145,29.1086 21.5,30C 26.3736,27.9465 29.3736,24.2799 30.5,19C 29.9422,16.942 28.6089,15.7753 26.5,15.5C 24.0875,17.3892 21.7541,19.5558 19.5,22C 11.6461,24.3003 6.97944,21.467 5.5,13.5C 5.90393,9.77121 7.57059,6.77121 10.5,4.5 Z"/></g>
<g><path style="opacity:1" fill="#f3f6fd" d="M 37.5,7.5 C 43.3034,7.80997 45.4701,10.81 44,16.5C 40.2552,20.5661 36.9218,20.2327 34,15.5C 33.2793,11.9463 34.4459,9.27965 37.5,7.5 Z"/></g>
<g><path style="opacity:1" fill="#f5f7fd" d="M 48.5,15.5 C 53.0685,15.0826 54.5685,17.0826 53,21.5C 51.8951,24.9371 49.7284,27.4371 46.5,29C 34.5992,28.9006 28.7659,34.7339 29,46.5C 28.7508,47.624 28.2508,48.624 27.5,49.5C 22.3687,43.1097 22.202,36.4431 27,29.5C 32.1621,24.5538 38.3287,21.7204 45.5,21C 46.7577,19.2591 47.7577,17.4258 48.5,15.5 Z"/></g>
<g><path style="opacity:1" fill="#fafbfe" d="M 12.5,34.5 C 20.0224,34.6698 22.0224,38.0031 18.5,44.5C 11.8745,46.7054 9.04114,44.372 10,37.5C 11.045,36.6266 11.8783,35.6266 12.5,34.5 Z"/></g>
<g><path style="opacity:1" fill="#f3f6fd" d="M 60.5,34.5 C 65.4202,33.7843 68.4202,35.7843 69.5,40.5C 68.1322,45.0777 65.1322,46.5777 60.5,45C 56.7135,41.589 56.7135,38.089 60.5,34.5 Z"/></g>
<g><path style="opacity:1" fill="#f0f3fd" d="M 26.5,55.5 C 30.1678,57.356 31.3345,60.356 30,64.5C 26.5762,66.2671 24.4096,65.2671 23.5,61.5C 23.9837,59.1992 24.9837,57.1992 26.5,55.5 Z"/></g>
<g><path style="opacity:1" fill="#f6f8fd" d="M 36.5,61.5 C 43.0001,60.4987 45.5001,63.1653 44,69.5C 37.4118,74.5091 34.0784,72.8424 34,64.5C 34.6979,63.3094 35.5313,62.3094 36.5,61.5 Z"/></g>
</svg>

<svg xmlns="http://www.w3.org/2000/svg" width="81" height="81" style="shape-rendering:geometricPrecision;text-rendering:geometricPrecision;image-rendering:optimizeQuality;fill-rule:evenodd;clip-rule:evenodd"><path style="opacity:1" fill="#fafbfe" d="M-.5-.5h81v81h-81v-81z"/><path style="opacity:1" fill="#386fe2" d="M10.5 4.5a32.437 32.437 0 0 1 8 .5 275.261 275.261 0 0 1 9 7.5 67.83 67.83 0 0 0 6-6.5c7.4-3.414 12.733-1.414 16 6 3.726.96 5.892-.54 6.5-4.5 5-4 10-4 15 0 2 4 2 8 0 12a6.975 6.975 0 0 1-3.5 2.5c-13.477.811-19.977 7.978-19.5 21.5a11.529 11.529 0 0 1-3.5 4.5l-13 3-2 2c9.031 6.758 16.864 5.59 23.5-3.5a68.898 68.898 0 0 0 2-14c5.505-6.488 11.172-6.488 17 0 2.002 6.185.17 10.685-5.5 13.5-8.944.455-14.944 4.788-18 13 .267 3.164 1.933 4.164 5 3 2.653-6.312 7.32-8.645 14-7 4.655 2.897 6.155 7.063 4.5 12.5-6.749 8.325-12.915 7.825-18.5-1.5-1.759-.797-3.425-.63-5 .5-6.495 9.475-12.828 9.309-19-.5-1.667-.667-3.333-.667-5 0-4.79 8.76-10.623 9.594-17.5 2.5-2.868-5.96-1.368-10.46 4.5-13.5 5.187-.284 9.854-1.95 14-5a8.905 8.905 0 0 0-4-3C10.584 51.739 5.417 47.239 6 36.5c3.748-5.225 8.915-7.391 15.5-6.5 4.874-2.053 7.874-5.72 9-11-.558-2.058-1.891-3.225-4-3.5-2.413 1.89-4.746 4.056-7 6.5-7.854 2.3-12.52-.533-14-8.5.404-3.729 2.07-6.729 5-9z"/><path style="opacity:1" fill="#f3f6fd" d="M37.5 7.5c5.803.31 7.97 3.31 6.5 9-3.745 4.066-7.078 3.733-10-1-.72-3.554.446-6.22 3.5-8z"/><path style="opacity:1" fill="#f5f7fd" d="M48.5 15.5c4.569-.417 6.069 1.583 4.5 6-1.105 3.437-3.272 5.937-6.5 7.5-11.9-.1-17.734 5.734-17.5 17.5a6.807 6.807 0 0 1-1.5 3c-5.131-6.39-5.298-13.057-.5-20 5.162-4.946 11.329-7.78 18.5-8.5a24.282 24.282 0 0 0 3-5.5z"/><path style="opacity:1" fill="#fafbfe" d="M12.5 34.5c7.522.17 9.522 3.503 6 10-6.626 2.205-9.459-.128-8.5-7a10.521 10.521 0 0 0 2.5-3z"/><path style="opacity:1" fill="#f3f6fd" d="M60.5 34.5c4.92-.716 7.92 1.284 9 6-1.368 4.578-4.368 6.078-9 4.5-3.786-3.411-3.786-6.911 0-10.5z"/><path style="opacity:1" fill="#f0f3fd" d="M26.5 55.5c3.668 1.856 4.834 4.856 3.5 9-3.424 1.767-5.59.767-6.5-3 .484-2.3 1.484-4.3 3-6z"/><path style="opacity:1" fill="#f6f8fd" d="M36.5 61.5c6.5-1.001 9 1.665 7.5 8-6.588 5.01-9.922 3.342-10-5 .698-1.19 1.531-2.19 2.5-3z"/></svg>
